humanity-icon-theme/Humanity/apps/32/accessories-dictionary.svg

<?xml version="1.0" encoding="UTF-8" standalone="no"?>
<!-- Created with Inkscape (http://www.inkscape.org/) -->

<svg
   xmlns:dc="http://purl.org/dc/elements/1.1/"
   xmlns:cc="http://creativecommons.org/ns#"
   xmlns:rdf="http://www.w3.org/1999/02/22-rdf-syntax-ns#"
   xmlns:svg="http://www.w3.org/2000/svg"
   xmlns="http://www.w3.org/2000/svg"
   xmlns:xlink="http://www.w3.org/1999/xlink"
   xmlns:sodipodi="http://sodipodi.sourceforge.net/DTD/sodipodi-0.dtd"
   xmlns:inkscape="http://www.inkscape.org/namespaces/inkscape"
   version="1.1"
   width="32"
   height="32"
   id="svg4046"
   inkscape:version="0.47pre4 r22446"
   sodipodi:docname="accessories-dictionary.svg">
  <metadata
     id="metadata51">
    <rdf:RDF>
      <cc:Work
         rdf:about="">
        <dc:format>image/svg+xml</dc:format>
        <dc:type
           rdf:resource="http://purl.org/dc/dcmitype/StillImage" />
      </cc:Work>
    </rdf:RDF>
  </metadata>
  <sodipodi:namedview
     pagecolor="#ffffff"
     bordercolor="#666666"
     borderopacity="1"
     objecttolerance="10"
     gridtolerance="10"
     guidetolerance="10"
     inkscape:pageopacity="0"
     inkscape:pageshadow="2"
     inkscape:window-width="1280"
     inkscape:window-height="689"
     id="namedview49"
     showgrid="false"
     inkscape:zoom="2.6074563"
     inkscape:cx="-4.7457627"
     inkscape:cy="15.728814"
     inkscape:window-x="0"
     inkscape:window-y="24"
     inkscape:window-maximized="1"
     inkscape:current-layer="svg4046" />
  <defs
     id="defs4048">
    <linearGradient
       x1="8.9033537"
       y1="-0.2663081"
       x2="45.547161"
       y2="35.480896"
       id="linearGradient3020"
       xlink:href="#linearGradient3921"
       gradientUnits="userSpaceOnUse"
       gradientTransform="matrix(0.65673613,0,0,0.61333559,-0.91722258,2.2008201)" />
    <linearGradient
       id="linearGradient3921">
      <stop
         id="stop3923"
         style="stop-color:#cdcdcd;stop-opacity:1"
         offset="0" />
      <stop
         id="stop3652"
         style="stop-color:#cdcdcd;stop-opacity:0.12156863"
         offset="1" />
    </linearGradient>
    <radialGradient
       cx="11.808705"
       cy="39.406094"
       r="13.427935"
       fx="11.808705"
       fy="39.406094"
       id="radialGradient3818-8"
       xlink:href="#linearGradient2346-5"
       gradientUnits="userSpaceOnUse"
       gradientTransform="matrix(-0.00710434,-1.6085872,2.5536176,-0.0098746,-75.880982,40.573245)" />
    <linearGradient
       id="linearGradient2346-5">
      <stop
         id="stop2348-9"
         style="stop-color:#eeeeee;stop-opacity:1"
         offset="0" />
      <stop
         id="stop2350-2"
         style="stop-color:#d9d9da;stop-opacity:1"
         offset="1" />
    </linearGradient>
    <radialGradient
       cx="54.53476"
       cy="28.165197"
       r="20.714195"
       fx="54.53476"
       fy="28.165197"
       id="radialGradient3826-2"
       xlink:href="#linearGradient3242-4"
       gradientUnits="userSpaceOnUse"
       gradientTransform="matrix(0.44716048,1.5676648,-2.1462849,0.52967214,43.493558,-96.175473)" />
    <linearGradient
       id="linearGradient3242-4">
      <stop
         id="stop3246-7"
         style="stop-color:#e35d4f;stop-opacity:1"
         offset="0" />
      <stop
         id="stop3248-1"
         style="stop-color:#c6262e;stop-opacity:1"
         offset="0.66093999" />
      <stop
         id="stop3250-2"
         style="stop-color:#690b2c;stop-opacity:1"
         offset="1" />
    </linearGradient>
    <linearGradient
       x1="61.048012"
       y1="37.454716"
       x2="61.048012"
       y2="11.753068"
       id="linearGradient3828-2"
       xlink:href="#linearGradient2490-0"
       gradientUnits="userSpaceOnUse"
       gradientTransform="matrix(0.99119697,0,0,0.93111272,-44.510604,-9.908997)" />
    <linearGradient
       id="linearGradient2490-0">
      <stop
         id="stop2492-2"
         style="stop-color:#791235;stop-opacity:1"
         offset="0" />
      <stop
         id="stop2494-1"
         style="stop-color:#dd3b27;stop-opacity:1"
         offset="1" />
    </linearGradient>
    <linearGradient
       x1="64.669731"
       y1="42.352654"
       x2="64.669731"
       y2="34.452091"
       id="linearGradient3832-6"
       xlink:href="#linearGradient2346-4"
       gradientUnits="userSpaceOnUse"
       gradientTransform="matrix(0.89542836,0,0,0.76855914,-41.907111,-2.5144992)" />
    <linearGradient
       id="linearGradient2346-4">
      <stop
         id="stop2348-0"
         style="stop-color:#eeeeee;stop-opacity:1"
         offset="0" />
      <stop
         id="stop2350-3"
         style="stop-color:#d9d9da;stop-opacity:1"
         offset="1" />
    </linearGradient>
    <linearGradient
       x1="302.85715"
       y1="366.64789"
       x2="302.85715"
       y2="609.50507"
       id="linearGradient3004"
       xlink:href="#linearGradient5048"
       gradientUnits="userSpaceOnUse"
       gradientTransform="matrix(2.774389,0,0,1.969706,-1892.179,-872.8854)" />
    <linearGradient
       id="linearGradient5048">
      <stop
         id="stop5050"
         style="stop-color:#000000;stop-opacity:0"
         offset="0" />
      <stop
         id="stop5056"
         style="stop-color:#000000;stop-opacity:1"
         offset="0.5" />
      <stop
         id="stop5052"
         style="stop-color:#000000;stop-opacity:0"
         offset="1" />
    </linearGradient>
    <radialGradient
       cx="605.71429"
       cy="486.64789"
       r="117.14286"
       fx="605.71429"
       fy="486.64789"
       id="radialGradient3006"
       xlink:href="#linearGradient5060"
       gradientUnits="userSpaceOnUse"
       gradientTransform="matrix(2.774389,0,0,1.969706,-1891.633,-872.8854)" />
    <linearGradient
       id="linearGradient5060">
      <stop
         id="stop5062"
         style="stop-color:#000000;stop-opacity:1"
         offset="0" />
      <stop
         id="stop5064"
         style="stop-color:#000000;stop-opacity:0"
         offset="1" />
    </linearGradient>
    <radialGradient
       cx="605.71429"
       cy="486.64789"
       r="117.14286"
       fx="605.71429"
       fy="486.64789"
       id="radialGradient4044"
       xlink:href="#linearGradient5060"
       gradientUnits="userSpaceOnUse"
       gradientTransform="matrix(-2.774389,0,0,1.969706,112.7623,-872.8854)" />
    <radialGradient
       inkscape:collect="always"
       xlink:href="#linearGradient2346"
       id="radialGradient2918"
       gradientUnits="userSpaceOnUse"
       gradientTransform="matrix(-0.00730508,-1.6540396,2.6257729,-0.01015361,-78.854121,51.861829)"
       cx="17.949392"
       cy="25.435272"
       fx="17.949392"
       fy="25.435272"
       r="13.427935" />
    <linearGradient
       id="linearGradient2346">
      <stop
         id="stop2348"
         style="stop-color:#eeeeee;stop-opacity:1"
         offset="0" />
      <stop
         id="stop2350"
         style="stop-color:#d9d9da;stop-opacity:1"
         offset="1" />
    </linearGradient>
    <linearGradient
       inkscape:collect="always"
       xlink:href="#linearGradient3211"
       id="linearGradient2922"
       gradientUnits="userSpaceOnUse"
       gradientTransform="matrix(0.96423685,0,0,0.97292031,-46.350184,0.91402424)"
       x1="25.579119"
       y1="-25.736307"
       x2="25.579119"
       y2="41.953453" />
    <linearGradient
       id="linearGradient3211">
      <stop
         id="stop3213"
         style="stop-color:#ffffff;stop-opacity:1"
         offset="0" />
      <stop
         id="stop3215"
         style="stop-color:#ffffff;stop-opacity:0"
         offset="1" />
    </linearGradient>
    <radialGradient
       inkscape:collect="always"
       xlink:href="#linearGradient3242-2"
       id="radialGradient2926"
       gradientUnits="userSpaceOnUse"
       gradientTransform="matrix(0.03178107,1.8508697,-2.9784553,2.1054162e-7,51.797465,-75.223824)"
       cx="39.651478"
       cy="18.618757"
       fx="39.651478"
       fy="18.618757"
       r="20.714195" />
    <linearGradient
       id="linearGradient3242-2">
      <stop
         offset="0"
         style="stop-color:#f8b17e;stop-opacity:1"
         id="stop3244" />
      <stop
         offset="0.31209752"
         style="stop-color:#e35d4f;stop-opacity:1"
         id="stop3246-9" />
      <stop
         offset="0.57054454"
         style="stop-color:#c6262e;stop-opacity:1"
         id="stop3248-3" />
      <stop
         offset="1"
         style="stop-color:#690b54;stop-opacity:1"
         id="stop3250-9" />
    </linearGradient>
    <linearGradient
       gradientTransform="matrix(0.69262419,0,0,0.63455034,-0.37411559,0.37068519)"
       inkscape:collect="always"
       xlink:href="#linearGradient2490"
       id="linearGradient2928"
       gradientUnits="userSpaceOnUse"
       x1="24.008854"
       y1="38.246284"
       x2="24.008854"
       y2="0.99999988" />
    <linearGradient
       id="linearGradient2490">
      <stop
         id="stop2492"
         style="stop-color:#791235;stop-opacity:1"
         offset="0" />
      <stop
         id="stop2494"
         style="stop-color:#dd3b27;stop-opacity:1"
         offset="1" />
    </linearGradient>
    <linearGradient
       inkscape:collect="always"
       xlink:href="#linearGradient2346"
       id="linearGradient2932"
       gradientUnits="userSpaceOnUse"
       gradientTransform="matrix(0.89432531,0,0,0.71689518,-42.656213,10.610191)"
       x1="21.13592"
       y1="40.884956"
       x2="21.13592"
       y2="35.298134" />
    <linearGradient
       x1="302.85715"
       y1="366.64789"
       x2="302.85715"
       y2="609.50507"
       id="linearGradient3012"
       xlink:href="#linearGradient5048-2"
       gradientUnits="userSpaceOnUse"
       gradientTransform="matrix(2.774389,0,0,1.969706,-1892.179,-872.8854)" />
    <linearGradient
       id="linearGradient5048-2">
      <stop
         id="stop5050-1"
         style="stop-color:#000000;stop-opacity:0"
         offset="0" />
      <stop
         id="stop5056-5"
         style="stop-color:#000000;stop-opacity:1"
         offset="0.5" />
      <stop
         id="stop5052-9"
         style="stop-color:#000000;stop-opacity:0"
         offset="1" />
    </linearGradient>
    <radialGradient
       cx="605.71429"
       cy="486.64789"
       r="117.14286"
       fx="605.71429"
       fy="486.64789"
       id="radialGradient3014"
       xlink:href="#linearGradient5060-9"
       gradientUnits="userSpaceOnUse"
       gradientTransform="matrix(2.774389,0,0,1.969706,-1891.633,-872.8854)" />
    <linearGradient
       id="linearGradient5060-9">
      <stop
         id="stop5062-1"
         style="stop-color:#000000;stop-opacity:1"
         offset="0" />
      <stop
         id="stop5064-4"
         style="stop-color:#000000;stop-opacity:0"
         offset="1" />
    </linearGradient>
    <radialGradient
       r="117.14286"
       fy="486.64789"
       fx="605.71429"
       cy="486.64789"
       cx="605.71429"
       gradientTransform="matrix(-2.774389,0,0,1.969706,112.7623,-872.8854)"
       gradientUnits="userSpaceOnUse"
       id="radialGradient3048"
       xlink:href="#linearGradient5060-9"
       inkscape:collect="always" />
    <linearGradient
       inkscape:collect="always"
       xlink:href="#linearGradient3921"
       id="linearGradient3152"
       gradientUnits="userSpaceOnUse"
       gradientTransform="matrix(0.65673613,0,0,0.61333559,-0.91722258,2.2008201)"
       x1="8.9033537"
       y1="-0.2663081"
       x2="45.547161"
       y2="35.480896" />
    <radialGradient
       inkscape:collect="always"
       xlink:href="#linearGradient2346-5"
       id="radialGradient3156"
       gradientUnits="userSpaceOnUse"
       gradientTransform="matrix(-0.00710434,-1.6085872,2.5536176,-0.0098746,-75.880982,40.573245)"
       cx="11.808705"
       cy="39.406094"
       fx="11.808705"
       fy="39.406094"
       r="13.427935" />
    <linearGradient
       inkscape:collect="always"
       xlink:href="#linearGradient2346-4"
       id="linearGradient3168"
       gradientUnits="userSpaceOnUse"
       gradientTransform="matrix(0.89542836,0,0,0.76855914,-41.907111,-2.5144992)"
       x1="64.669731"
       y1="42.352654"
       x2="64.669731"
       y2="34.452091" />
    <radialGradient
       inkscape:collect="always"
       xlink:href="#linearGradient3242-2-8"
       id="radialGradient2926-8"
       gradientUnits="userSpaceOnUse"
       gradientTransform="matrix(0.03178107,1.8508697,-2.9784553,2.1054162e-7,51.797465,-75.223824)"
       cx="39.651478"
       cy="18.618757"
       fx="39.651478"
       fy="18.618757"
       r="20.714195" />
    <linearGradient
       id="linearGradient3242-2-8">
      <stop
         offset="0"
         style="stop-color:#f8b17e;stop-opacity:1"
         id="stop3244-8" />
      <stop
         offset="0.31209752"
         style="stop-color:#e35d4f;stop-opacity:1"
         id="stop3246-9-6" />
      <stop
         offset="0.57054454"
         style="stop-color:#c6262e;stop-opacity:1"
         id="stop3248-3-8" />
      <stop
         offset="1"
         style="stop-color:#690b54;stop-opacity:1"
         id="stop3250-9-3" />
    </linearGradient>
    <linearGradient
       gradientTransform="matrix(0.69262419,0,0,0.63455034,-0.37411559,0.37068519)"
       inkscape:collect="always"
       xlink:href="#linearGradient2490-3"
       id="linearGradient2928-8"
       gradientUnits="userSpaceOnUse"
       x1="24.008854"
       y1="38.246284"
       x2="24.008854"
       y2="0.99999988" />
    <linearGradient
       id="linearGradient2490-3">
      <stop
         id="stop2492-3"
         style="stop-color:#791235;stop-opacity:1"
         offset="0" />
      <stop
         id="stop2494-3"
         style="stop-color:#dd3b27;stop-opacity:1"
         offset="1" />
    </linearGradient>
  </defs>
  <g
     id="g8875"
     transform="matrix(0.0142336,0,0,0.00970873,28.659868,28.820132)">
    <rect
       style="opacity:0.40206185;fill:url(#linearGradient3004);fill-opacity:1;fill-rule:nonzero;stroke:none;stroke-width:1;marker:none;visibility:visible;display:inline;overflow:visible"
       id="rect8877"
       y="-150.69685"
       x="-1559.2523"
       height="478.35718"
       width="1339.6335" />
    <path
       style="opacity:0.40206185;fill:url(#radialGradient3006);fill-opacity:1;fill-rule:nonzero;stroke:none;stroke-width:1;marker:none;visibility:visible;display:inline;overflow:visible"
       id="path8879"
       d="m -219.61876,-150.68038 c 0,0 0,478.33079 0,478.33079 142.874166,0.90045 345.40022,-107.16966 345.40014,-239.196175 0,-132.026537 -159.436816,-239.134595 -345.40014,-239.134615 z" />
    <path
       style="opacity:0.40206185;fill:url(#radialGradient4044);fill-opacity:1;fill-rule:nonzero;stroke:none;stroke-width:1;marker:none;visibility:visible;display:inline;overflow:visible"
       id="path8881"
       d="m -1559.2523,-150.68038 c 0,0 0,478.33079 0,478.33079 -142.8742,0.90045 -345.4002,-107.16966 -345.4002,-239.196175 0,-132.026537 159.4368,-239.134595 345.4002,-239.134615 z" />
  </g>
  <path
     style="color:#000000;fill:url(#linearGradient3168);fill-opacity:1;fill-rule:nonzero;stroke:#7a1235;stroke-width:0.99974561;stroke-linecap:round;stroke-linejoin:round;stroke-miterlimit:4;stroke-opacity:1;stroke-dasharray:none;stroke-dashoffset:0.06;marker:none;visibility:visible;display:inline;overflow:visible;enable-background:accumulate"
     id="rect8840"
     d="m 28.825816,29.500118 -25.4092666,0 c -0.2358341,0 -0.4256935,-0.226998 -0.4256935,-0.50897 L 2.4998734,25.061263 c 0,-0.281971 0.1898593,-0.508971 0.4256936,-0.508971 l 26.391231,0" />
  <path
     style="fill:none;stroke:#666666;stroke-width:0.99999994;stroke-linecap:round;stroke-linejoin:miter;stroke-miterlimit:4;stroke-opacity:1;stroke-dasharray:none"
     id="path9017"
     d="M 28.968155,28.744635 C 28.665834,28.365921 28.55039,26.4941 29.138855,25.54502" />
  <path
     style="color:#000000;fill:url(#radialGradient2926-8);fill-opacity:1;fill-rule:nonzero;stroke:url(#linearGradient2928-8);stroke-width:0.99974573000000000;stroke-linecap:round;stroke-linejoin:round;stroke-miterlimit:4;stroke-opacity:1;stroke-dasharray:none;stroke-dashoffset:0.06000000000000000;marker:none;visibility:visible;display:inline;overflow:visible;enable-background:accumulate"
     id="rect8064"
     d="m 4.2531901,1.4998728 c -0.2421591,0 -0.4306586,0.2576539 -0.4306584,0.5840696 L 2.4998726,23.916058 c 0,0.326415 0.207224,0.58407 0.4493827,0.584069 l 26.1014887,0 c 0.242159,1e-6 0.449383,-0.257654 0.449383,-0.584069 L 28.02096,2.0839424 c 1e-6,-0.3264157 -0.188498,-0.5840696 -0.430658,-0.5840696 l -23.3371119,0 z" />
  <path
     style="fill:none;stroke:#bebebe;stroke-width:0.99999994;stroke-linecap:square;stroke-linejoin:miter;stroke-miterlimit:4;stroke-opacity:1;stroke-dasharray:none"
     id="path3267"
     d="M 3.9057982,28.526033 3.607952,26.103505" />
  <text
     style="font-size:14.06383705px;font-style:normal;font-variant:normal;font-weight:normal;font-stretch:normal;opacity:0.4;fill:#141414;fill-opacity:1;stroke:none;font-family:Serif;-inkscape-font-specification:Serif"
     xml:space="preserve"
     id="text3323"
     transform="scale(1.044133,0.95773239)"
     y="16.506983"
     x="6.5134492"><tspan
       style="fill:#141414;fill-opacity:1"
       id="tspan3325"
       y="16.506983"
       x="6.5134492">Aa</tspan></text>
  <text
     style="font-size:14.06383705px;font-style:normal;font-variant:normal;font-weight:normal;font-stretch:normal;color:#000000;fill:url(#radialGradient3156);fill-opacity:1;fill-rule:nonzero;stroke:none;marker:none;visibility:visible;display:inline;overflow:visible;enable-background:accumulate;font-family:Serif;-inkscape-font-specification:Serif"
     xml:space="preserve"
     id="text2537"
     transform="scale(1.044133,0.95773239)"
     y="17.551115"
     x="6.5134492"><tspan
       style="color:#000000;fill:url(#radialGradient3156);fill-opacity:1;fill-rule:nonzero;stroke:none;marker:none;visibility:visible;display:inline;overflow:visible;enable-background:accumulate"
       id="tspan2539"
       y="17.551115"
       x="6.5134492">Aa</tspan></text>
  <path
     style="opacity:0.2;fill:none;stroke:url(#linearGradient3152);stroke-width:0.99999994;stroke-linecap:round;stroke-linejoin:round;stroke-miterlimit:4;stroke-opacity:1;stroke-dasharray:none;stroke-dashoffset:0.06;marker:none;visibility:visible;display:inline;overflow:visible;enable-background:accumulate"
     id="path2864"
     d="m 5.2520656,2.5000001 c -0.2419862,0 -0.4303514,0.2559714 -0.4303511,0.5802557 L 3.4999997,22.919744 c 0,0.324285 0.2070761,0.580256 0.4490621,0.580256 l 24.1018762,0 C 28.292922,23.5 28.5,23.244029 28.5,22.919744 L 27.021889,3.0802558 c 10e-7,-0.3242843 -0.188364,-0.5802557 -0.430352,-0.5802557 l -21.3394714,0 z" />
</svg>

<?xml version="1.0" encoding="UTF-8" standalone="no"?>
<!-- Created with Inkscape (http://www.inkscape.org/) -->
<svg id="svg4046" xmlns:rdf="http://www.w3.org/1999/02/22-rdf-syntax-ns#" xmlns="http://www.w3.org/2000/svg" height="32" width="32" version="1.1" xmlns:cc="http://creativecommons.org/ns#" xmlns:xlink="http://www.w3.org/1999/xlink" xmlns:dc="http://purl.org/dc/elements/1.1/">
 <metadata id="metadata51">
  <rdf:RDF>
   <cc:Work rdf:about="">
    <dc:format>image/svg+xml</dc:format>
    <dc:type rdf:resource="http://purl.org/dc/dcmitype/StillImage"/>
   </cc:Work>
  </rdf:RDF>
 </metadata>
 <defs id="defs4048">
  <linearGradient id="linearGradient3004" y2="609.51" gradientUnits="userSpaceOnUse" x2="302.86" gradientTransform="matrix(2.7744 0 0 1.9697 -1892.2 -872.89)" y1="366.65" x1="302.86">
   <stop id="stop5050" style="stop-opacity:0" offset="0"/>
   <stop id="stop5056" offset=".5"/>
   <stop id="stop5052" style="stop-opacity:0" offset="1"/>
  </linearGradient>
  <radialGradient id="radialGradient3006" xlink:href="#linearGradient5060" gradientUnits="userSpaceOnUse" cy="486.65" cx="605.71" gradientTransform="matrix(2.7744 0 0 1.9697 -1891.6 -872.89)" r="117.14"/>
  <linearGradient id="linearGradient5060">
   <stop id="stop5062" offset="0"/>
   <stop id="stop5064" style="stop-opacity:0" offset="1"/>
  </linearGradient>
  <radialGradient id="radialGradient4044" xlink:href="#linearGradient5060" gradientUnits="userSpaceOnUse" cy="486.65" cx="605.71" gradientTransform="matrix(-2.7744 0 0 1.9697 112.76 -872.89)" r="117.14"/>
  <linearGradient id="linearGradient3152" y2="35.481" gradientUnits="userSpaceOnUse" x2="45.547" gradientTransform="matrix(.65674 0 0 .61334 -.91722 2.2008)" y1="-.26631" x1="8.9034">
   <stop id="stop3923" style="stop-color:#cdcdcd" offset="0"/>
   <stop id="stop3652" style="stop-color:#cdcdcd;stop-opacity:.12157" offset="1"/>
  </linearGradient>
  <radialGradient id="radialGradient3156" gradientUnits="userSpaceOnUse" cy="39.406" cx="11.809" gradientTransform="matrix(-.0071043 -1.6086 2.5536 -.0098746 -75.881 40.573)" r="13.428">
   <stop id="stop2348-9" style="stop-color:#eee" offset="0"/>
   <stop id="stop2350-2" style="stop-color:#d9d9da" offset="1"/>
  </radialGradient>
  <linearGradient id="linearGradient3168" y2="34.452" gradientUnits="userSpaceOnUse" x2="64.67" gradientTransform="matrix(.89543 0 0 .76856 -41.907 -2.5145)" y1="42.353" x1="64.67">
   <stop id="stop2348-0" style="stop-color:#eee" offset="0"/>
   <stop id="stop2350-3" style="stop-color:#d9d9da" offset="1"/>
  </linearGradient>
  <radialGradient id="radialGradient2926-8" gradientUnits="userSpaceOnUse" cy="18.619" cx="39.651" gradientTransform="matrix(.031781 1.8509 -2.9785 2.1054e-7 51.797 -75.224)" r="20.714">
   <stop id="stop3244-8" style="stop-color:#f8b17e" offset="0"/>
   <stop id="stop3246-9-6" style="stop-color:#e35d4f" offset=".31210"/>
   <stop id="stop3248-3-8" style="stop-color:#c6262e" offset=".57054"/>
   <stop id="stop3250-9-3" style="stop-color:#690b54" offset="1"/>
  </radialGradient>
  <linearGradient id="linearGradient2928-8" y2="1" gradientUnits="userSpaceOnUse" x2="24.009" gradientTransform="matrix(.69262 0 0 .63455 -.37412 .37069)" y1="38.246" x1="24.009">
   <stop id="stop2492-3" style="stop-color:#791235" offset="0"/>
   <stop id="stop2494-3" style="stop-color:#dd3b27" offset="1"/>
  </linearGradient>
 </defs>
 <g id="g8875" transform="matrix(.014234 0 0 .0097087 28.66 28.82)">
  <rect id="rect8877" style="opacity:.40206;fill:url(#linearGradient3004)" height="478.36" width="1339.6" y="-150.7" x="-1559.3"/>
  <path id="path8879" style="opacity:.40206;fill:url(#radialGradient3006)" d="m-219.62-150.68v478.33c142.87 0.90045 345.4-107.17 345.4-239.2s-159.44-239.13-345.4-239.13z"/>
  <path id="path8881" style="opacity:.40206;fill:url(#radialGradient4044)" d="m-1559.3-150.68v478.33c-142.87 0.90045-345.4-107.17-345.4-239.2s159.44-239.13 345.4-239.13z"/>
 </g>
 <path id="rect8840" style="stroke-linejoin:round;stroke-width:.99975;color:#000000;stroke-dashoffset:.06;stroke:#7a1235;stroke-linecap:round;fill:url(#linearGradient3168)" d="m28.826 29.5h-25.409c-0.23583 0-0.42569-0.227-0.42569-0.50897l-0.4914-3.93c0-0.28197 0.18986-0.50897 0.42569-0.50897h26.391"/>
 <path id="path9017" style="stroke:#666;stroke-linecap:round;fill:none" d="m28.968 28.745c-0.302-0.379-0.418-2.251 0.171-3.2"/>
 <path id="rect8064" style="stroke-linejoin:round;stroke-width:.99975;color:#000000;stroke-dashoffset:.06;stroke:url(#linearGradient2928-8);stroke-linecap:round;fill:url(#radialGradient2926-8)" d="m4.2532 1.4999c-0.24216 0-0.43066 0.25765-0.43066 0.58407l-1.3226 21.832c0 0.32642 0.20722 0.58407 0.44938 0.58407h26.101c0.24216 0.000001 0.44938-0.25765 0.44938-0.58407l-1.478-21.832c0.000001-0.32642-0.1885-0.58407-0.43066-0.58407h-23.337z"/>
 <path id="path3267" style="stroke:#bebebe;stroke-linecap:square;fill:none" d="m3.9058 28.526-0.2978-2.422"/>
 <text id="text3323" style="opacity:.4;font-size:14.064px;font-family:Serif;fill:#141414" xml:space="preserve" transform="scale(1.0441 .95773)" y="16.506983" x="6.5134492"><tspan id="tspan3325" y="16.506983" x="6.5134492" style="fill:#141414">Aa</tspan></text>
 <text id="text2537" style="font-size:14.064px;font-family:Serif;color:#000000;fill:url(#radialGradient3156)" xml:space="preserve" transform="scale(1.0441 .95773)" y="17.551115" x="6.5134492"><tspan id="tspan2539" y="17.551115" x="6.5134492" style="color:#000000;fill:url(#radialGradient3156)">Aa</tspan></text>
 <path id="path2864" style="opacity:.2;stroke-linejoin:round;stroke-dashoffset:.06;stroke:url(#linearGradient3152);stroke-linecap:round;fill:none" d="m5.2521 2.5c-0.24199 0-0.43035 0.25597-0.43035 0.58026l-1.3218 19.84c0 0.32428 0.20708 0.58026 0.44906 0.58026h24.102c0.242 0 0.449-0.256 0.449-0.58l-1.478-19.84c0.000001-0.32428-0.18836-0.58026-0.43035-0.58026h-21.339z"/>
</svg>
